X: 7
T: The Silver Spire
R: reel
M: 4/4
L: 1/8
K: Dmaj
FE|:D2FE DFAc|dcdf edAF|GABG FGAF|GFED EAGE|
D2FE DFAc|dcdf edAF|G2BG F2AF|EAGE D2EF:|
|:GFED EFGE|GFEF GABc|dcBA Bcde|fdgf e2 (3ABc|
d2fd c2ec|dcdA BAFD|G2BG F2AF|EAGE D2EF:|


Tune 240	Setting 23292

